Arcticons/scalable/apps/calendar8.svg

<svg id="Layer_1" data-name="Layer 1" viewBox="0 0 48 48" xmlns="http://www.w3.org/2000/svg">
 <defs>
  <style>.cls-1{fill:none;stroke:#fff;stroke-linecap:round;stroke-linejoin:round;}</style>
 </defs>
 <path class="cls-1" d="m15.8 8.58a2.51 2.51 0 1 1-2.51 2.51 2.51 2.51 0 0 1 2.51-2.51zm16.4 0a2.51 2.51 0 0 1 2.51 2.51 2.51 2.51 0 0 1-2.51 2.51 2.51 2.51 0 1 1 0-5z"/>
 <path class="cls-1" d="m7.5 5.5a2 2 0 0 0-2 2v33a2 2 0 0 0 2 2h33a2 2 0 0 0 2-2v-33a2 2 0 0 0-2-2z"/>
 <path class="cls-1" d="m25.46 28a4.51 4.51 0 0 0 4.54-4.5 4.51 4.51 0 0 0-4.5-4.5h-2.96a4.51 4.51 0 0 0-4.54 4.5 4.51 4.51 0 0 0 4.5 4.5 4.51 4.51 0 0 0-4.5 4.5 4.51 4.51 0 0 0 4.5 4.5h2.92a4.51 4.51 0 0 0 4.58-4.5 4.51 4.51 0 0 0-4.5-4.5"/>
</svg>

<svg id="Layer_1" data-name="Layer 1" xmlns="http://www.w3.org/2000/svg" viewBox="0 0 48 48"><defs><style>.cls-1{fill:none;stroke:#fff;stroke-linecap:round;stroke-linejoin:round;}</style></defs><path class="cls-1" d="M15.8,8.58a2.51,2.51,0,1,1-2.51,2.51h0A2.51,2.51,0,0,1,15.8,8.58Zm16.4,0a2.51,2.51,0,0,1,2.51,2.51h0A2.51,2.51,0,0,1,32.2,13.6h0a2.51,2.51,0,1,1,0-5Z"/><path class="cls-1" d="M7.5,5.5a2,2,0,0,0-2,2v33a2,2,0,0,0,2,2h33a2,2,0,0,0,2-2V7.5a2,2,0,0,0-2-2Z"/><path class="cls-1" d="M25.46,28A4.51,4.51,0,0,0,30,23.5h0a4.51,4.51,0,0,0-4.5-4.5H22.54A4.51,4.51,0,0,0,18,23.5h0a4.51,4.51,0,0,0,4.5,4.5h0A4.51,4.51,0,0,0,18,32.5h0a4.51,4.51,0,0,0,4.5,4.5h2.92A4.51,4.51,0,0,0,30,32.5h0a4.51,4.51,0,0,0-4.5-4.5"/></svg>
